!!!SOCIAL_FUNCTION:	chief songs
!!!PDT:	1918

Specific Region: Dakotas, Minnesota, Montana, Nebraska
!!!REG: Dakotas and Montana
!!!LING_GROUP: Siouan
!!!LANG: Tone
!!!OTL@ENG: Song of Sitting Bull (a)
!!!ONM: No. 193
**kern
*Imale
*clefF4
*k[b-e-a-d-g-c-]
*M3/4
*MM60
16e-
8.e-
8e-
8e-
16e-
8.B-
=2
8e-
8e-
16e-
16B-
8B-
16B-
8.A-
=3
8B-
8e-
16e-
16B-
8B-
16B-
16A-
8A-
=4
8B-
8B-
16B-
16G-
8G-
8E-
8E-
=5
8G-
8E-
16B-
16B-
8B-
16B-
16A-
8A-
=6||
*M2/4
8A-
8A-
8G-
8G-
=7
8G-
8G-
8E-
16.E-
32E-
=8
2E-
=9
2E-
=10||
*M3/4
16B-
16G-
8G-
16B-
8.G-
8G-
8G-
=11
*M2/4
16e-
8.B-
8e-
8B-
=12
16e-
8.B-
8B-
(32B-
32A-)
16A-
=13||
*M3/4
8B-
8B-
8.G-
16G-
8.E-
16E-
=14||
*M2/4
(16G-
16E-)
8E-
8B-
8B-
=15
4A-
(16B-
16A-)
8A-
=16
16A-
8.G-
8G-
8G-
=17
16G-
8.E-
8E-
8E-
=18
2E-
=19
4E-
4r
==
*-
!!!CNT: Native American -- Sioux
!!!MRD: 1911/07//-1914///
!!!OCL: Frances Densmore
!!!YOR1: Teton Sioux Music, Bulletin 61,
!!!YOR2: Bureau of American Ethnology, Smithsonian Institution
!!!PPR: Government Printing Office
!!!PPP: Washington, D.C.
!!!PDT: 1918///
!!!ENC: Craig Stuart Sapp
!!!END: 2002/03/25/
!!!EEV: 2002/03/31/
!!!AGN: Chief Song
!!!MPN@@SIO: Waha'changka-ya'pi
!!!MPN@ENG: Used-as-a-Shield
!!!TXO: Teton Sioux
!!!MLC: Standing Rock Reservation, South Dakota, United States of America
!!!ARL: 45.9/-100.7#
!!!catalog: Catalogue No. 612
!!!PPG: 459
!!!EFL: 198/245
!!!VTS: 2446482752
